assets/img/main/transition/fourth.svg

<svg xmlns="http://www.w3.org/2000/svg" viewBox="0 0 1920 851.28">
  <path d="M1906.84,163.45l-14.31-4.06-17.23-19.93-18,2.51-14.21-10.57-21.44,5.22c-6.88-11.46-12.63-23.24-20.36-33.53-23.58-31.39-63.8-30.17-83.07,1.94a29,29,0,0,1-2.82,3.28l-12.08,3.29-7.1,11.7c-12.05,1.24-23.73.4-33.94,3.86-30,10.16-62.1,38.89-52.67,88.15.49,2.54-1,5.47-1.79,9.27-22-8.19-37.08.15-48.29,18.2l-13-5.78-15.53,5.8c-1.21-1.68-2.17-3.28-3.38-4.67-20.51-23.72-45.61-37.44-77.82-35.78-5.56.29-11.14.15-16.71.09-12.77-.15-24.27,3.89-35.07,10.4-25.22,15.2-40.58,37.53-47.39,65.89-2.39,9.94-4.09,20.05-6.11,30.15l-34.13-9.46c-35.41,6.42-61.32,20.16-65.85,56.89l-37.89,7.94c-8.05-3-17-2.65-26.15.12a42.12,42.12,0,0,0-13.86-.46c-3.91.51-8.06-.87-13.05-1.48.71-14.18-.26-26.95-11.59-39.64l-27.79-10.4c8.4-8.63,16-16,23.15-23.86,18.7-20.38,30.58-43.22,29.21-72.16s-16.91-45-46.41-45.24c-5.67,0-11.34-.41-14.34-.52-4.89-10-7-19.16-12.59-24.51s-14.82-6.92-22.84-10.32c1.05-6.17,2-12.46,3.22-18.68,7.63-37.6-1.62-70.16-30.4-95.85C1025.47,5.41,1004.46-1.85,979.91.4c-14.73,1.36-26.22,8.35-39,15.9-4.16,5.76-9.34,11.95-13.41,18.8s-7,14.32-10.36,21.46c-4.36-.31-8.65-1.23-12.75-.72-4.54.57-8.92,2.45-13.32,3.74-15.55-22-39.61-24.9-60.13-17.2-20.84,7.82-35.59,23.5-40.69,46.2-2.19,9.76-3.39,19.75-5,29.7-6.65,1.42-13.66,1.34-18.72,4.45-5.28,3.25-8.67,9.56-12.71,14.31H732l-8.47,14.12c-5.2,1.75-10.78,3.54-16.31,5.5C666.43,171.14,640.47,199.15,629,241c-4.49,16.44-2.12,33-2.71,49.46-.11,3.17-.35,6.34-.5,9.14l-8.38,6.77c-.69,5.11-1.25,9.24-1.9,14-20.67-4.86-27.32,9.94-33.76,23.89l-25.16-4.2c-.21-17.47-8.78-28.41-26.81-32.22,0-6.52.79-12.43-.15-18.05-2.64-15.71-3.77-32.18-9.48-46.8-21.82-55.84-73.93-88.26-134.27-84.17-33.69,2.29-59.68,18-74.53,50.22l-23,1.66-10.15,9.59,1.81,1.81c-.77,6.22-1.53,12.45-2.11,17.17l-24.56,11.07c-25.88-27.7-42.19-29.34-71.58-7.07l-12.58-13.22L153.1,228c-8.52-23.84-11.06-25.44-35.7-22.45-.68-2.32-1.58-4.72-2.09-7.21-6.8-33.07-24.94-59-51.83-78.39C43,105.2,21.76,97,0,94.52V851.28H1920V180.63C1918.21,174.53,1914.49,170.9,1906.84,163.45Z"/>
</svg>

<?xml version="1.0" encoding="utf-8"?>
<svg viewBox="0 -0.0010000000474974513 1920 1463.1309814453125" xmlns="http://www.w3.org/2000/svg">
  <path d="M 1906.84 163.45 L 1892.53 159.39 L 1875.3 139.46 L 1857.3 141.97 L 1843.09 131.4 L 1821.65 136.62 C 1814.77 125.16 1809.02 113.38 1801.29 103.09 C 1777.71 71.7 1737.49 72.92 1718.22 105.03 C 1717.363 106.192 1716.42 107.288 1715.4 108.31 L 1703.32 111.6 L 1696.22 123.3 C 1684.17 124.54 1672.49 123.7 1662.28 127.16 C 1632.28 137.32 1600.18 166.05 1609.61 215.31 C 1610.1 217.85 1608.61 220.78 1607.82 224.58 C 1585.82 216.39 1570.74 224.73 1559.53 242.78 L 1546.53 237 L 1531 242.8 C 1529.79 241.12 1528.83 239.52 1527.62 238.13 C 1507.11 214.41 1482.01 200.69 1449.8 202.35 C 1444.24 202.64 1438.66 202.5 1433.09 202.44 C 1420.32 202.29 1408.82 206.33 1398.02 212.84 C 1372.8 228.04 1357.44 250.37 1350.63 278.73 C 1348.24 288.67 1346.54 298.78 1344.52 308.88 L 1310.39 299.42 C 1274.98 305.84 1249.07 319.58 1244.54 356.31 L 1206.65 364.25 C 1198.6 361.25 1189.65 361.6 1180.5 364.37 C 1175.937 363.452 1171.254 363.297 1166.64 363.91 C 1162.73 364.42 1158.58 363.04 1153.59 362.43 C 1154.3 348.25 1153.33 335.48 1142 322.79 L 1114.21 312.39 C 1122.61 303.76 1130.21 296.39 1137.36 288.53 C 1156.06 268.15 1167.94 245.31 1166.57 216.37 C 1165.2 187.43 1149.66 171.37 1120.16 171.13 C 1114.49 171.13 1108.82 170.72 1105.82 170.61 C 1100.93 160.61 1098.82 151.45 1093.23 146.1 C 1087.64 140.75 1078.41 139.18 1070.39 135.78 C 1071.44 129.61 1072.39 123.32 1073.61 117.1 C 1081.24 79.5 1071.99 46.94 1043.21 21.25 C 1025.47 5.41 1004.46 -1.85 979.91 0.4 C 965.18 1.76 953.69 8.75 940.91 16.3 C 936.75 22.06 931.57 28.25 927.5 35.1 C 923.43 41.95 920.5 49.42 917.14 56.56 C 912.78 56.25 908.49 55.33 904.39 55.84 C 899.85 56.41 895.47 58.29 891.07 59.58 C 875.52 37.58 851.46 34.68 830.94 42.38 C 810.1 50.2 795.35 65.88 790.25 88.58 C 788.06 98.34 786.86 108.33 785.25 118.28 C 778.6 119.7 771.59 119.62 766.53 122.73 C 761.25 125.98 757.86 132.29 753.82 137.04 L 732 137.04 L 723.53 151.16 C 718.33 152.91 712.75 154.7 707.22 156.66 C 666.43 171.14 640.47 199.15 629 241 C 624.51 257.44 626.88 274 626.29 290.46 C 626.18 293.63 625.94 296.8 625.79 299.6 L 617.41 306.37 C 616.72 311.48 616.16 315.61 615.51 320.37 C 594.84 315.51 588.19 330.31 581.75 344.26 L 556.59 340.06 C 556.38 322.59 547.81 311.65 529.78 307.84 C 529.78 301.32 530.57 295.41 529.63 289.79 C 526.99 274.08 525.86 257.61 520.15 242.99 C 498.33 187.15 446.22 154.73 385.88 158.82 C 352.19 161.11 326.2 176.82 311.35 209.04 L 288.35 210.7 L 278.2 220.29 L 280.01 222.1 C 279.24 228.32 278.48 234.55 277.9 239.27 L 253.34 250.34 C 227.46 222.64 211.15 221 181.76 243.27 L 169.18 230.05 L 153.1 228 C 144.58 204.16 142.04 202.56 117.4 205.55 C 116.72 203.23 115.82 200.83 115.31 198.34 C 108.51 165.27 90.37 139.34 63.48 119.95 C 43 105.2 21.76 97 0 94.52 L 0 1463.13 L 1920 1463.13 L 1920 180.63 C 1918.21 174.53 1914.49 170.9 1906.84 163.45 Z"/>
</svg>
